packages/sights/assets/overlays/rN39Y3HR.svg

<svg width="500" height="375" viewBox="0 0 500 375" fill="none" xmlns="http://www.w3.org/2000/svg">
<path d="M62.92 8L36.1 13.76L31.97 21.1L33.35 31.19C33.35 31.19 30.82 70.63 30.82 78.65L32.89 88.05L15 131.16L17.29 190.64L24.6 218.29L65.88 255.9L95.68 265.53L87 233.43C87 233.43 91.82 104.33 228.71 100.21C228.71 100.21 365.6 93.33 376.61 239.85L368.81 273.56H483.53" stroke="white" stroke-miterlimit="10"/>
<path d="M231 367.8C297.357 367.8 351.15 314.007 351.15 247.65C351.15 181.293 297.357 127.5 231 127.5C164.643 127.5 110.85 181.293 110.85 247.65C110.85 314.007 164.643 367.8 231 367.8Z" stroke="white" stroke-miterlimit="10"/>
<path d="M95.7109 265.53L111.001 253.61" stroke="white" stroke-miterlimit="10"/>
<path d="M368.81 273.56L364.34 270.69V268.17L350.9 255.45" stroke="white" stroke-miterlimit="10"/>
<path d="M17.0801 185.06C17.0801 185.06 54.2101 196.28 72.7801 193.3C72.7801 193.3 86.5401 103.19 191.1 80.2998" stroke="white" stroke-miterlimit="10"/>
<path d="M31.5098 62.07C31.5098 62.07 51.9898 53.83 71.8698 54.73C71.8698 54.73 113.14 11.57 113.75 8" stroke="white" stroke-miterlimit="10"/>
<path d="M267.46 35.0404L286.95 39.2104H289.95C290.515 37.9304 291.45 36.849 292.636 36.1057C293.821 35.3624 295.202 34.9913 296.6 35.0404C296.6 35.0404 322.97 34.1704 327.6 36.0404L329.2 41.0404L348.46 39.2004L349.84 37.9304L348.17 29.8304L343.82 26.6204C343.82 26.6204 292.68 16.7604 265.82 25.2404L263.99 28.6804C263.99 28.6804 265.34 34.5804 267.46 35.0404Z" stroke="white" stroke-miterlimit="10"/>
<path d="M240.949 8L262.189 77.83C262.189 77.83 288.979 82.83 303.919 90.37C303.919 90.37 378.669 119.72 391.509 199.51L484.459 201.35" stroke="white" stroke-miterlimit="10"/>
</svg>

<svg width="500" height="375" fill="none" xmlns="http://www.w3.org/2000/svg"><path d="M62.92 8 36.1 13.76l-4.13 7.34 1.38 10.09s-2.53 39.44-2.53 47.46l2.07 9.4L15 131.16l2.29 59.48 7.31 27.65 41.28 37.61 29.8 9.63-8.68-32.1s4.82-129.1 141.71-133.22c0 0 136.89-6.88 147.9 139.64l-7.8 33.71h114.72" stroke="#fff" stroke-miterlimit="10"/><path d="M231 367.8c66.357 0 120.15-53.793 120.15-120.15S297.357 127.5 231 127.5s-120.15 53.793-120.15 120.15S164.643 367.8 231 367.8ZM95.71 265.53l15.291-11.92" stroke="#fff" stroke-miterlimit="10"/><path d="m368.81 273.56-4.47-2.87v-2.52l-13.44-12.72M17.08 185.06s37.13 11.22 55.7 8.24c0 0 13.76-90.11 118.32-113M31.51 62.07s20.48-8.24 40.36-7.34c0 0 41.27-43.16 41.88-46.73M267.46 35.04l19.49 4.17h3a6.998 6.998 0 0 1 6.65-4.17s26.37-.87 31 1l1.6 5 19.26-1.84 1.38-1.27-1.67-8.1-4.35-3.21s-51.14-9.86-78-1.38l-1.83 3.44s1.35 5.9 3.47 6.36Z" stroke="#fff" stroke-miterlimit="10"/><path d="m240.949 8 21.24 69.83s26.79 5 41.73 12.54c0 0 74.75 29.35 87.59 109.14l92.95 1.84" stroke="#fff" stroke-miterlimit="10"/></svg>
